X: 16901
T: Haunted House, The
R: jig
M: 6/8
K: Gmajor
|:D|GFG AGA|BGE EDE|GAB d2 B|ded dBA|
GFG AGA|BGE EDE|GBd ege|dBA G2-:|
|:G|GBd ege|ege edB|GAB d2 B|ded dBA|
[1 GBd ege|ege edB|GBd ege|dBA G2-:|
[2 GFG AGA|BGE EDE|GBd ege|dBA G2||

